icons/plexis/48/gns3.svg

<svg viewBox="0 0 48 48" xmlns="http://www.w3.org/2000/svg" xmlns:xlink="http://www.w3.org/1999/xlink">
  <linearGradient id="a" gradientTransform="matrix(0 -1 1 0 -.0000015 47.999998)" gradientUnits="userSpaceOnUse" x1="1" x2="47">
    <stop offset="0" stop-color="#e4e4e4"/>
    <stop offset="1" stop-color="#eee"/>
  </linearGradient>
  <path d="m47 24c0 22.703-.297 23-23 23-22.703 0-23-.297-23-23 0-22.703.297-23 23-23 22.703 0 23 .297 23 23z" fill="url(#a)"/>
  <path d="m25 12a4 4 0 0 0-4 4 4 4 0 0 0  2.02 3.469c-1.194 1.76-4.201 6.209-5.531 8.564a4 4 0 0 0-.489-.033 4 4 0 0 0-4 4 4 4 0 0 0  4 4 4 4 0 0 0  3.867-3h8.264a4 4 0 0 0 3.869 3 4 4 0 0 0  4-4 4 4 0 0 0-4-4 4 4 0 0 0-.486.04c-1.334-2.359-4.344-6.81-5.534-8.571a4 4 0 0 0 2.02-3.469 4 4 0 0 0-4-4m-.604 7.949a4 4 0 0 0  .604.051 4 4 0 0 0  .602-.049l5.449 8.563a4 4 0 0 0-2.051 3.486h-8a4 4 0 0 0-2.051-3.49z" opacity=".1"/>
  <path d="m16 28c .461-1.426 7-11 7-11l1 1-7 11m-1-1" fill="#36abd7"/>
  <path d="m18 31v1h12v-1m-12 0" fill="#e55858"/>
  <path d="m31.996 28c-.461-1.426-7-11-7-11l-1 1 7 11m1-1" fill="#ff9500"/>
  <circle cx="16" cy="31" fill="#e55858" r="4"/>
  <circle cx="32" cy="31" fill="#ff9500" r="4"/>
  <circle cx="24" cy="15" fill="#36abd7" r="4"/>
</svg>

<svg xmlns="http://www.w3.org/2000/svg" viewBox="0 0 48 48">
 <defs>
  <linearGradient id="linearGradient3764" x1="1" x2="47" gradientUnits="userSpaceOnUse" gradientTransform="matrix(0,-1,1,0,-1.5e-6,47.999998)">
   <stop style="stop-color:#e4e4e4;stop-opacity:1"/>
   <stop offset="1" style="stop-color:#eee;stop-opacity:1"/>
  </linearGradient>
 </defs>
 <g>
  
  
  
 </g>
 <g>
  <path d="m 47,24 C 47,46.703 46.703,47 24,47 1.297,47 1,46.703 1,24 1,1.297 1.297,1 24,1 46.703,1 47,1.297 47,24 z" style="fill:url(#linearGradient3764);fill-opacity:1"/>
 </g>
 <g>
  <g>
   <g transform="translate(1,1)">
    <g style="opacity:0.1">
     <!-- color: #eeeeee -->
    </g>
   </g>
  </g>
 </g>
 <g>
  
 </g>
 <g>
  <g>
   <g>
    <!-- color: #eeeeee -->
    <g>
     <path d="m 25 12 a 4 4 0 0 0 -4 4 4 4 0 0 0 2.02 3.469 c -1.194 1.76 -4.201 6.209 -5.531 8.564 A 4 4 0 0 0 17 28 a 4 4 0 0 0 -4 4 4 4 0 0 0 4 4 4 4 0 0 0 3.867 -3 l 8.264 0 A 4 4 0 0 0 33 36 4 4 0 0 0 37 32 4 4 0 0 0 33 28 4 4 0 0 0 32.514 28.04 C 31.18 25.681 28.17 21.23 26.98 19.469 A 4 4 0 0 0 29 16 4 4 0 0 0 25 12 m -0.604 7.949 A 4 4 0 0 0 25 20 4 4 0 0 0 25.602 19.951 l 5.449 8.563 A 4 4 0 0 0 29 32 l -8 0 a 4 4 0 0 0 -2.051 -3.49 l 5.447 -8.561 z" style="fill:#000;opacity:0.1;fill-opacity:1;stroke:none;fill-rule:nonzero"/>
     <path d="m 16 28 c 0.461 -1.426 7 -11 7 -11 l 1 1 l -7 11 m -1 -1" style="fill:#36abd7;fill-opacity:1;stroke:none;fill-rule:nonzero"/>
     <path d="m 18 31 l 0 1 l 12 0 l 0 -1 m -12 0" style="fill:#e55858;fill-opacity:1;stroke:none;fill-rule:nonzero"/>
     <path d="m 31.996 28 c -0.461 -1.426 -7 -11 -7 -11 l -1 1 l 7 11 m 1 -1" style="fill:#ff9500;fill-opacity:1;stroke:none;fill-rule:nonzero"/>
    </g>
   </g>
  </g>
  <circle r="4" cy="31" cx="16" style="fill:#e55858;opacity:1;fill-opacity:1;stroke:none"/>
  <circle cx="32" cy="31" r="4" style="fill:#ff9500;opacity:1;fill-opacity:1;stroke:none"/>
  <circle cx="24" cy="15" r="4" style="fill:#36abd7;opacity:1;fill-opacity:1;stroke:none"/>
 </g>
</svg>
